en/_assets/websql/success.svg

<svg xmlns="http://www.w3.org/2000/svg" width="16" height="16" fill="none" viewBox="0 0 16 16">
    <g clip-path="url(#clip0_1_76)">
        <path fill="#3BB935" d="M8 .5C3.86.5.5 3.86.5 8c0 4.14 3.36 7.5 7.5 7.5 4.14 0 7.5-3.36 7.5-7.5C15.5 3.86 12.14.5 8 .5Zm3.1 5.46-2.95 4.93a.75.75 0 0 1-.59.36H7.5c-.22 0-.43-.1-.58-.27l-2.07-2.5a.758.758 0 0 1 .1-1.06c.32-.26.79-.22 1.06.1l1.4 1.68 2.41-4.02c.21-.36.67-.47 1.03-.26.34.22.46.68.25 1.04Z"/>
    </g>
    <defs>
        <clipPath id="clip0_1_76">
            <path fill="#fff" d="M0 0h16v16H0z"/>
        </clipPath>
    </defs>
</svg>

<svg width="16" height="16" viewBox="0 0 16 16" fill="none" xmlns="http://www.w3.org/2000/svg">
<g clip-path="url(#clip0_1_76)">
<path d="M8 0.5C3.86 0.5 0.5 3.86 0.5 8C0.5 12.14 3.86 15.5 8 15.5C12.14 15.5 15.5 12.14 15.5 8C15.5 3.86 12.14 0.5 8 0.5ZM11.1 5.96L8.15 10.89C8.02 11.1 7.81 11.23 7.56 11.25C7.54 11.25 7.52 11.25 7.5 11.25C7.28 11.25 7.07 11.15 6.92 10.98L4.85 8.48C4.59 8.16 4.63 7.69 4.95 7.42C5.27 7.16 5.74 7.2 6.01 7.52L7.41 9.2L9.82 5.18C10.03 4.82 10.49 4.71 10.85 4.92C11.19 5.14 11.31 5.6 11.1 5.96Z" fill="#3BB935"/>
</g>
<defs>
<clipPath id="clip0_1_76">
<rect width="16" height="16" fill="white"/>
</clipPath>
</defs>
</svg>
